X: 10381
T: SIR JAMES BAIRD'S STRATHSPEY
Q: "Slowish"
R: strathspey
B: "Edinburgh Repository of Music" v.1 p.38 #1
F: http://digital.nls.uk/special-collections-of-printed-music/pageturner.cfm?id=87776133
Z: 2015 John Chambers <jc:trillian.mit.edu>
M: C
L: 1/16
K: G
Bc |\
dG3d3B Td4 G2Bc | d3d (edc)B c2A2 A2Bc |\
d2G2Bg3 | Ag3 Gg3 | d3G {c}B2AG D2G2G2 :|
e2 |\
Td3eg3a (gaba) g4 | g2G2 {e}d2cB eA3 e4 |\
(d3e)~g3a (gaba) g4 | d2G2 {c}B2AG D2G2G2e2 |
~d3e~g3a gaba g2dc | B2g2 {e}d2cB A3B {d}c2BA |\
B2G2d2B2 d2gf e2c2 | d3G {c}B2AG D2G2G2 |]

%%sep 2 1 500
%%sep 1 1 500

